X: 24365
T: Love And A Bottle
R: slip jig
M: 9/8
K: Gmajor
G3 B2G AFD|A2B cec dBG|g3 f2e dcB|ABG F2G AFD|
G3 B2G AFD|A2B cec dBG|g3 f2e dcB|ABG ADF G3||
A3 D2c B2A|dcB A2G FED|g3 f2e dcB|ABG F2G AFD|
A3 D2c B2A|dcB A2G FED|g3 f2e dcB|ABG ADF G3||

